X:1
T:Reges Tharsis et insulae
T:William Byrd (c.1540-1623)
T:Reges Tharsis et insulae
T:© Choral Public Domain Library 2010
T:© Choral Public Domain Library 2010
T:© Choral Public Domain Library 2010
T:© Choral Public Domain Library 2010
T:© Choral Public Domain Library 2010
C:William Byrd (c.1540-1623)
Z:© Choral Public Domain Library 2010
%%score [ 1 2 3 4 ]
L:1/8
M:4/4
K:F
V:1 treble nm="Alto" snm="A."
V:2 treble nm="Alto" snm="A."
V:3 treble-8 transpose=-12 nm="Tenor" snm="T."
V:4 bass nm="Bass" snm="B."
V:1
 [B,d]2 |[M:4/2] z8 D8- | D4 ^C4 D6 E2 | F2 G2 A8 G4 | A16 | z4 E4 F3 E D4 | B3 A G4 A6 =B2 | %7
w: |Re-|* ges Thar- *||sis,|et in- su- læ|mu- ne- ra of- fe-|
 c8 A6 =B2 | c8 z8 | z4 C4 F3 E D4 | E3 D C4 D6 E2 | F8 z8 | z4 A4 B3 A G4 | A3 G F4 A6 =B2 | %14
w: rent, of- fe-|rent,|et in- su- læ|mu- ne- ra of- fe-|rent,|et in- su- læ|mu- ne- ra of- fe-|
 c8 z4 c4- | c4 G4 A6 G2 | F8 z4 D4- | D4 C4 G6 F2 | E4 C2 F4 ED E4 | F4 C4 F6 E2 | D2 G2 B8 A4 | %21
w: rent, Re-|* ges A- ra-|bum, Re-|* ges A- ra-|bum et Sa- * * *|ba, et Sa- *|ba, et Sa- *|
 G16- | G8 z4 c4 | A4 A4 B6 A2 | G8 A4 F4- | F4 F4 B6 c2 | d4 c4 c8 | z4 c8 B4- | B4 A4 c4 G4 | %29
w: ba|_ do-|na ad- du- *|cent, do- na|_ ad- du- *|* * cent,|et a-|* do- ra- bunt|
 B4 A4 c8 | G6 F2 D4 E2 F2 | G8 C8 | z4 G8 F4- | F4 E4 G4 D4 | F6 E2 D8 | z8 z4 B4- | %36
w: e- * um|om- nes Re- ges _|ter- ræ,|et a-|* do- ra- bunt|e- * um|om-|
 B2 A2 A6 G2 G4- | G4 ^F4 G8 | d6 c2 B4 G4 | B4 A6 G2 G4- | G4 ^F4 | G16 | D12 _E4 | %43
w: * nes Re- ges ter-|* * ræ,|om- nes Re- ges|ter- * * *||ræ,|om- nes|
 D2 C2 B,2 C2 D8 | C8 z4 B4- | B4 A4 B8 | F4 c6 B2 G4 | A6 GF E4 F4 | z4 c8 =B4 | c8 G8 | %50
w: gen- * * * *|tes, om-|* nes gen-|tes ser- vi- ent|e- * * * i,|om- nes|gen- tes|
 z4 c6 B2 G4 | A6 GF E2 F4 E2 | F4 d8 ^c4 | d8 A8 | c6 c2 B4 A4- | A2 G2 F4 E8 | z4 F6 F2 E4 | %57
w: ser- vi- ent|e- * * * * *|i, om- nes|gen- tes|ser- vi- ent e-|* * * i,|ser- vi- ent|
 F2 G2 A8 G2 F2 | E8 c6 B2 | A8 B8 | A16 | !fermata!A16 |] %62
w: e- * * * *|i, ser- vi-|ent e-||i.|
V:2
 [B,d]2 |[M:4/2] A12 B4 | A6 G2 F2 E2 D4- | D4 ^C2 =B,2 C4 D4 | E4 E4 F6 E2 | D4 z4 A6 A2 | %6
w: |Re- ges|Thar- * * * *||sis, et in- su-|læ mu- ne-|
 G4 C8 D4 | C8 z8 | z4 A4 B3 A G4 | A3 G F4 A6 =B2 | c8 z8 | z4 C4 F3 E D4 | E3 D C4 D6 E2 | %13
w: ra of- fe-|rent,|et in- su- læ|mu- ne- ra of- fe-|rent,|et in- su- læ|mu- ne- ra of- fe-|
 F8 F6 G2 | A4 G4 G8 | z4 c8 F4 | A6 G2 F8 | z4 c8 G4 | c6 B2 A4 G4 | A12 F4 | z4 D4 F8- | %21
w: rent, of- *|* fe- rent,|Re- ges|A- ra- bum,|Re- ges|A- ra- bum et|Sa- ba,|et Sa-|
 F4 E4 D4 G4 | E4 E4 A6 G2 | F2 E2 D2 EF G2 F2 E2 F2- | F2 ED E4 F4 c4 | A4 A4 d6 c2 | B4 A4 G8 | %27
w: * * ba, do-|na ad- du- *||* * * * cent, do-|na ad- du- *||
 A8 D8 | C12 C4 | D4 D4 G8 | C4 z4 z4 c4- | c4 B8 A4 | c4 G4 B4 A4 | G8 z4 B4- | B2 A2 A6 G2 G4- | %35
w: cent, et|a- do-|ra- bunt e-|um, et|_ a- do-|ra- bunt e- *|um om-|* nes Re- ges ter-|
 G4 ^F4 G8 | z16 | d6 c2 B4 G4 | B4 A4 D8 | F6 E2 D4 C4 | D8 | z8 B8- | B4 G4 B8 | F4 G6 F2 D4 | %44
w: * * ræ,||om- nes Re- ges|ter- * rae,|Re- ges ter- *|ræ,|om-|* nes gen-|tes ser- vi- ent|
 F6 _E2 D4 B,2 C2 | D2 _E2 C4 B,2 F2 G2 A2 | B2 c2 A4 G4 c4- | c2 A2 F4 G2 A4 GF | A2 G2 E4 D8 | %49
w: e- * * * *||* * * i, ser-|* vi- ent e- * * *|* * * i,|
 z4 c8 =B4 | c8 G4 c4- | c2 A2 F4 G8 | A4 z2 A4 G2 E4 | F2 D2 F6 ED C2 A2- | A2 GF G2 E2 D8 | %55
w: om- nes|gen- tes ser-|* vi- ent e-|i, ser- vi- ent|e- * * * * * *|* * * * * i,|
 z4 d8 ^c4 | d8 A8 | z4 c6 c2 B4 | A4 G4 z4 A4- | A2 G2 F8 G4- | G4 F4 E8 | !fermata!^F16 |] %62
w: om- nes|gen- tes|ser- vi- ent|e- i, ser-|* vi- ent e-||i.|
V:3
 [Da]2 |[M:4/2] z16 | z16 | z8 z4 d4- | d4 ^c4 d6 e2 | f2 g2 a6 g2 f4- | f4 e4 f8 | z4 e4 f3 e d4 | %8
w: |||Re-|* ges Thar- *||* * sis|et in- su- læ,|
 e3 d c4 d6 e2 | f8 d6 d2 | c4 A4 G6 G2 | F8 D6 D2 | A8 G6 G2 | F4 d6 d2 c4 | c6 d2 e8- | e8 f8- | %16
w: mu- ne- ra of- fe-|rent, of- fe-|rent, et in- su-|læ, mu- ne-|ra of- fe-|rent, of- fe- rent,|of- fe- rent,|_ Re-|
 f4 F4 c6 B2 | A8 e6 d2 | c4 A4 c8 | F12 F4 | G8 D4 D2 d2- | d2 c2 c8 =B4 | c4 c4 A4 A4 | %23
w: * ges A- ra-|bum, A- ra-|bum et Sa-|ba, et|Sa- ba, et Sa-||ba, do- na ad-|
 d6 c2 B2 A2 G2 AB | c8 F8 | f4 d4 d4 g4- | g2 f2 f8 e4 | f16- | f8 z8 | z4 f8 e4- | e4 d4 f4 c4 | %31
w: du- * * * * * *|* cent,|do- na ad- du-||cent,|_|et a-|* do- ra- bunt|
 e4 d4 f8 | c6 B2 G4 A2 B2 | c8 G8 | d6 c2 B4 G4 | A8 G4 G4- | G4 F4 B8 | A8 d8- | d8 z8 | %39
w: e- * um|om- nes Re- ges _|ter- ræ,|om- nes Re- ges|ter- ræ, Re-|* ges ter-|* ræ,|_|
 d6 c2 B4 G4 | B4 A4 | G16- | G8 z4 B4- | B4 G4 B8 | F4 f8 d4 | f6 _e2 d4 G4 | z4 f8 e4 | f8 c8- | %48
w: om- nes Re- ges|ter- *|ræ,|_ om-|* nes gen-|tes, om- nes|gen- * * tes,|om- nes|gen- tes|
 c8 z4 g4- | g2 e2 c4 e6 d2 | c2 B2 A4 c4 c4- | c4 A4 c8 | F4 f4 e4 a4- | a2 f2 d4 f6 ed | %54
w: _ ser-|* vi- ent e- *|* * * i, om-|* nes gen-|tes, gen- tes ser-|* vi- ent e- * *|
 c3 d efge f2 e2 f2 g2 | a8 z2 A4 A2 | B4 A4 z8 | d4 c4 f4 d4 | c6 B2 A2 G2 F4 | f6 e2 d4 e4- | %60
w: |i, om- nes|gen- tes,|om- nes gen- tes|ser- vi- * * ent,|ser- vi- ent e-|
 e2 d2 d8 ^c4 | !fermata!d16 |] %62
w: |i.|
V:4
 [F,,D]2 |[M:4/2] z16 | z16 | A,12 B,4 | A,6 G,2 F,2 E,2 D,4- | D,4 ^C,4 D,8 | z4 C,4 F,3 E, D,4 | %7
w: |||Re- ges|Thar- * * * *|* * sis,|et in- su- læ,|
 E,3 D, C,4 D,6 D,2 | C,8 G,6 G,2 | F,8 z8 | z4 F,4 B,3 A, G,4 | A,3 G, F,4 A,6 =B,2 | C8 z8 | %13
w: mu- ne- ra of- fe-|rent, of- fe-|rent,|et in- su- læ,|mu- ne- ra of- fe-|rent,|
 D,6 E,2 F,4 F,4- | F,4 E,4 C,8- | C,8 z8 | F,12 D,4 | F,6 E,2 C,8 | z4 F,8 C,4 | C6 B,2 A,4 A,4 | %20
w: of- fe- rent, of-|* fe- rent,|_|Re- ges|A- ra- bum,|Re- ges|A- ra- bum et|
 B,8 F,4 F,4 | G,16 | C,4 C,4 F,4 F,,4 | z16 | z4 C4 A,4 A,4 | D6 C2 B,2 A,2 G,4- | %26
w: Sa- ba, et|Sa-|ba, et Sa- ba||do- na ad-|du- * * * *|
 G,4 A,2 B,2 C8 | F,8 F,8- | F,8 E,8 | D,8 C,8- | C,4 B,,4 B,4 A,4 | G,8 F,8 | E,4 E,8 F,4 | %33
w: |cent, et|_ a-|do- ra-|* bunt e- *|um om-|nes Re- ges|
 C,6 D,2 E,2 F,2 G,4 | D,8 z8 | z16 | D,6 C,2 B,,4 G,,4 | D,8 G,,4 G,4- | G,4 ^F,4 G,8 | %39
w: ter- * * * *|ræ,||om- nes Re- ges|ter- ræ, om-|* nes Re-|
 D,4 F,8 E,4 | D,8 | z16 | B,12 G,4 | B,8 B,,4 B,4- | B,4 A,4 B,8 | F,8 z4 B,4- | B,2 A,2 F,4 C8 | %47
w: ges ter- *|ræ,||om- nes|gen- tes, om-|* nes gen-|tes ser-|* vi- ent e-|
 F,8 z4 F,4- | F,2 E,2 C,4 G,8 | C,8 z8 | z4 F,8 E,4 | F,8 C,4 C4- | C2 A,2 F,4 A,8 | D,8 z4 F,4- | %54
w: i, ser-|* vi- ent e-|i,|om- nes|gen- tes ser-|* vi- ent e-|i, ser-|
 F,2 E,2 C,4 D,6 E,2 | F,2 E,2 F,2 G,2 A,8 | z4 D,8 ^C,4 | D,4 A,,2 F,4 F,2 G,4 | %58
w: * vi- ent e- *|* * * * i,|om- nes|gen- tes ser- vi- ent|
"^The kings of Tarshish and the Islands shall offer presents: the kings of the Arabians and of Saba shall bring gifts to the Lord God:and all kings of the earth shall adore him; all nations shall serve him." A,3 B, C6 B,2 A,2 G,2 | %59
w: e- * * * * *|
 F,2 E,2 D,2 C,2 B,,2 A,,2 G,,4 | A,,16 | !fermata!D,16 |] %62
w: ||i.|

